X:1
T:Surprise Symphony in C ( Easy Version )
T:Joseph Haydn
T:Tinashe Nyamukapa
Z:Tinashe Nyamukapa
%%score { 1 | 2 }
L:1/8
M:4/4
K:C
V:1 treble nm="Piano" snm="Pno."
V:2 bass 
V:1
 C2 C2 E2 E2 | G2 G2 E4 | F2 F2 D2 D2 | B,2 B,2 G,4 | C2 C2 E2 E2 | G2 G2 E4 | c2 c2 ^F2 ^F2 | G8 | %8
 C2 C2 E2 E2 | G2 G2 E4 | F2 F2 D2 D2 | B,2 B,2 G,4 | C2 C2 E2 E2 | G2 G2 E4 | c2 c2 ^F2 ^F2 | G8 | %16
 F4 E4 | D2 D2 DEFG | [FA]2 [EG]2 [DF]2 [CE]2 | [B,D]2 [B,D]2 [B,D]4 | E2 E2 G2 G2 | c2 c2 e4 | %22
 [Ad]2 [Ad]2 cBAB | [Ec]2 [Ec]2 [Ec]2 z2 |] %24
V:2
 C,4 z4 | C4 z4 | F,4 z4 | G,4 z4 | C,4 z4 | C4 z4 | A,4 D,4 | G,8 | [C,E,G,]4 z4 | C4 z4 | %10
 [D,F,A,]4 z4 | G,4 z4 | [C,E,G,]4 z4 | C4 z4 | A,,4 D,4 | G,8 | z2 G,2 z2 G,2 | G,2 G,2 G,4 | %18
 [G,,G,]8 | [G,,D,]2 [G,,D,]2 [G,,D,]4 | C4 G,4 | E,4 C,4 | D,4 G,4 | C,8 |] %24

